images/6604452.svg

<?xml version="1.0" encoding="UTF-8"?>
<svg xmlns="http://www.w3.org/2000/svg" xmlns:xlink="http://www.w3.org/1999/xlink" width="300pt" height="300pt" viewBox="0 0 300 300" version="1.1">
<defs>
<g>
<symbol overflow="visible" id="glyph0-0">
<path style="stroke:none;" d="M 0.453125 1.59375 L 0.453125 -6.34375 L 4.953125 -6.34375 L 4.953125 1.59375 Z M 0.953125 1.09375 L 4.453125 1.09375 L 4.453125 -5.84375 L 0.953125 -5.84375 Z M 0.953125 1.09375 "/>
</symbol>
<symbol overflow="visible" id="glyph0-1">
<path style="stroke:none;" d="M 0.890625 -6.5625 L 2.078125 -6.5625 L 4.984375 -1.078125 L 4.984375 -6.5625 L 5.84375 -6.5625 L 5.84375 0 L 4.65625 0 L 1.75 -5.484375 L 1.75 0 L 0.890625 0 Z M 0.890625 -6.5625 "/>
</symbol>
<symbol overflow="visible" id="glyph0-2">
<path style="stroke:none;" d="M 0.890625 -6.5625 L 1.765625 -6.5625 L 1.765625 -3.875 L 5 -3.875 L 5 -6.5625 L 5.890625 -6.5625 L 5.890625 0 L 5 0 L 5 -3.125 L 1.765625 -3.125 L 1.765625 0 L 0.890625 0 Z M 0.890625 -6.5625 "/>
</symbol>
<symbol overflow="visible" id="glyph0-3">
<path style="stroke:none;" d="M 4.8125 -6.34375 L 4.8125 -5.484375 C 4.476562 -5.640625 4.160156 -5.753906 3.859375 -5.828125 C 3.566406 -5.910156 3.28125 -5.953125 3 -5.953125 C 2.507812 -5.953125 2.132812 -5.859375 1.875 -5.671875 C 1.613281 -5.484375 1.484375 -5.21875 1.484375 -4.875 C 1.484375 -4.582031 1.570312 -4.363281 1.75 -4.21875 C 1.925781 -4.070312 2.253906 -3.953125 2.734375 -3.859375 L 3.28125 -3.75 C 3.9375 -3.625 4.421875 -3.398438 4.734375 -3.078125 C 5.054688 -2.765625 5.21875 -2.34375 5.21875 -1.8125 C 5.21875 -1.175781 5.003906 -0.691406 4.578125 -0.359375 C 4.148438 -0.0351562 3.523438 0.125 2.703125 0.125 C 2.390625 0.125 2.054688 0.0859375 1.703125 0.015625 C 1.359375 -0.046875 1 -0.148438 0.625 -0.296875 L 0.625 -1.203125 C 0.976562 -1.003906 1.328125 -0.851562 1.671875 -0.75 C 2.023438 -0.644531 2.367188 -0.59375 2.703125 -0.59375 C 3.203125 -0.59375 3.585938 -0.691406 3.859375 -0.890625 C 4.140625 -1.085938 4.28125 -1.375 4.28125 -1.75 C 4.28125 -2.070312 4.179688 -2.320312 3.984375 -2.5 C 3.785156 -2.675781 3.460938 -2.8125 3.015625 -2.90625 L 2.46875 -3.015625 C 1.8125 -3.148438 1.332031 -3.359375 1.03125 -3.640625 C 0.738281 -3.921875 0.59375 -4.3125 0.59375 -4.8125 C 0.59375 -5.382812 0.796875 -5.835938 1.203125 -6.171875 C 1.609375 -6.515625 2.171875 -6.6875 2.890625 -6.6875 C 3.203125 -6.6875 3.515625 -6.65625 3.828125 -6.59375 C 4.148438 -6.539062 4.476562 -6.457031 4.8125 -6.34375 Z M 4.8125 -6.34375 "/>
</symbol>
</g>
</defs>
<g id="surface54045">
<rect x="0" y="0" width="300" height="300" style="fill:rgb(100%,100%,100%);fill-opacity:1;stroke:none;"/>
<path style="fill:none;stroke-width:1.2;stroke-linecap:butt;stroke-linejoin:miter;stroke:rgb(0%,0%,0%);stroke-opacity:1;stroke-miterlimit:10;" d="M 35.25 145.738281 L 45.207031 122.675781 "/>
<path style="fill:none;stroke-width:1.2;stroke-linecap:butt;stroke-linejoin:miter;stroke:rgb(0%,0%,0%);stroke-opacity:1;stroke-miterlimit:10;" d="M 50.242188 165.894531 L 35.25 145.738281 "/>
<path style="fill:none;stroke-width:1.2;stroke-linecap:butt;stroke-linejoin:miter;stroke:rgb(0%,0%,0%);stroke-opacity:1;stroke-miterlimit:10;" d="M 45.207031 122.675781 L 70.15625 119.769531 "/>
<path style="fill:none;stroke-width:1.2;stroke-linecap:butt;stroke-linejoin:miter;stroke:rgb(0%,0%,0%);stroke-opacity:1;stroke-miterlimit:10;" d="M 70.15625 119.769531 L 85.152344 139.921875 "/>
<path style="fill:none;stroke-width:1.2;stroke-linecap:butt;stroke-linejoin:miter;stroke:rgb(0%,0%,0%);stroke-opacity:1;stroke-miterlimit:10;" d="M 85.152344 139.921875 L 75.195312 162.984375 "/>
<path style="fill:none;stroke-width:1.2;stroke-linecap:butt;stroke-linejoin:miter;stroke:rgb(0%,0%,0%);stroke-opacity:1;stroke-miterlimit:10;" d="M 85.152344 139.921875 L 97.628906 138.46875 "/>
<path style="fill:none;stroke-width:1.2;stroke-linecap:butt;stroke-linejoin:miter;stroke:rgb(0%,0%,100%);stroke-opacity:1;stroke-miterlimit:10;" d="M 97.628906 138.46875 L 110.101562 137.015625 "/>
<path style="fill:none;stroke-width:1.2;stroke-linecap:butt;stroke-linejoin:miter;stroke:rgb(0%,0%,0%);stroke-opacity:1;stroke-miterlimit:10;" d="M 75.195312 162.984375 L 50.242188 165.894531 "/>
<path style="fill:none;stroke-width:1.2;stroke-linecap:butt;stroke-linejoin:miter;stroke:rgb(0%,0%,100%);stroke-opacity:1;stroke-miterlimit:10;" d="M 110.101562 137.015625 L 117.601562 147.09375 "/>
<path style="fill:none;stroke-width:1.2;stroke-linecap:butt;stroke-linejoin:miter;stroke:rgb(0%,0%,0%);stroke-opacity:1;stroke-miterlimit:10;" d="M 117.601562 147.09375 L 125.097656 157.167969 "/>
<path style=" stroke:none;fill-rule:nonzero;fill:rgb(100%,100%,100%);fill-opacity:1;" d="M 103.101562 131.515625 L 117.101562 131.515625 L 117.101562 142.515625 L 103.101562 142.515625 Z M 103.101562 131.515625 "/>
<g style="fill:rgb(0%,0%,100%);fill-opacity:1;">
  <use xlink:href="#glyph0-1" x="103.101562" y="140.178711"/>
  <use xlink:href="#glyph0-2" x="110.079102" y="140.178711"/>
</g>
<path style="fill:none;stroke-width:1.2;stroke-linecap:butt;stroke-linejoin:miter;stroke:rgb(0%,0%,0%);stroke-opacity:1;stroke-miterlimit:10;" d="M 122.382812 155.996094 L 117.40625 167.527344 "/>
<path style="fill:none;stroke-width:1.2;stroke-linecap:butt;stroke-linejoin:miter;stroke:rgb(80%,80%,0%);stroke-opacity:1;stroke-miterlimit:10;" d="M 117.40625 167.527344 L 112.425781 179.058594 "/>
<path style="fill:none;stroke-width:1.2;stroke-linecap:butt;stroke-linejoin:miter;stroke:rgb(0%,0%,0%);stroke-opacity:1;stroke-miterlimit:10;" d="M 127.808594 158.339844 L 122.832031 169.871094 "/>
<path style="fill:none;stroke-width:1.2;stroke-linecap:butt;stroke-linejoin:miter;stroke:rgb(80%,80%,0%);stroke-opacity:1;stroke-miterlimit:10;" d="M 122.832031 169.871094 L 117.851562 181.402344 "/>
<path style="fill:none;stroke-width:1.2;stroke-linecap:butt;stroke-linejoin:miter;stroke:rgb(0%,0%,0%);stroke-opacity:1;stroke-miterlimit:10;" d="M 125.097656 157.167969 L 137.570312 155.714844 "/>
<path style="fill:none;stroke-width:1.2;stroke-linecap:butt;stroke-linejoin:miter;stroke:rgb(0%,0%,100%);stroke-opacity:1;stroke-miterlimit:10;" d="M 137.570312 155.714844 L 150.046875 154.261719 "/>
<path style=" stroke:none;fill-rule:nonzero;fill:rgb(100%,100%,100%);fill-opacity:1;" d="M 109.140625 174.730469 L 115.140625 174.730469 L 115.140625 185.730469 L 109.140625 185.730469 Z M 109.140625 174.730469 "/>
<g style="fill:rgb(80%,80%,0%);fill-opacity:1;">
  <use xlink:href="#glyph0-3" x="109.140625" y="183.393555"/>
</g>
<path style="fill:none;stroke-width:1.2;stroke-linecap:butt;stroke-linejoin:miter;stroke:rgb(0%,0%,100%);stroke-opacity:1;stroke-miterlimit:10;" d="M 150.046875 154.261719 L 157.542969 164.339844 "/>
<path style="fill:none;stroke-width:1.2;stroke-linecap:butt;stroke-linejoin:miter;stroke:rgb(0%,0%,0%);stroke-opacity:1;stroke-miterlimit:10;" d="M 157.542969 164.339844 L 165.042969 174.414062 "/>
<path style="fill:none;stroke-width:1.2;stroke-linecap:butt;stroke-linejoin:miter;stroke:rgb(0%,0%,0%);stroke-opacity:1;stroke-miterlimit:10;" d="M 160.003906 131.199219 L 155.027344 142.730469 "/>
<path style="fill:none;stroke-width:1.2;stroke-linecap:butt;stroke-linejoin:miter;stroke:rgb(0%,0%,100%);stroke-opacity:1;stroke-miterlimit:10;" d="M 155.027344 142.730469 L 150.046875 154.261719 "/>
<path style=" stroke:none;fill-rule:nonzero;fill:rgb(100%,100%,100%);fill-opacity:1;" d="M 147.046875 148.761719 L 154.046875 148.761719 L 154.046875 159.761719 L 147.046875 159.761719 Z M 147.046875 148.761719 "/>
<g style="fill:rgb(0%,0%,100%);fill-opacity:1;">
  <use xlink:href="#glyph0-1" x="147.046875" y="157.424805"/>
</g>
<path style="fill:none;stroke-width:1.2;stroke-linecap:butt;stroke-linejoin:miter;stroke:rgb(0%,0%,0%);stroke-opacity:1;stroke-miterlimit:10;" d="M 165.042969 174.414062 L 189.992188 171.507812 "/>
<path style="fill:none;stroke-width:1.2;stroke-linecap:butt;stroke-linejoin:miter;stroke:rgb(0%,0%,0%);stroke-opacity:1;stroke-miterlimit:10;" d="M 189.992188 171.507812 L 199.949219 148.445312 "/>
<path style="fill:none;stroke-width:1.2;stroke-linecap:butt;stroke-linejoin:miter;stroke:rgb(0%,0%,0%);stroke-opacity:1;stroke-miterlimit:10;" d="M 199.949219 148.445312 L 184.957031 128.292969 "/>
<path style=" stroke:none;fill-rule:nonzero;fill:rgb(0%,0%,0%);fill-opacity:1;" d="M 224.902344 145.539062 L 199.4375 144.042969 L 200.460938 152.847656 Z M 224.902344 145.539062 "/>
<path style="fill:none;stroke-width:1.2;stroke-linecap:butt;stroke-linejoin:miter;stroke:rgb(0%,0%,0%);stroke-opacity:1;stroke-miterlimit:10;" d="M 184.957031 128.292969 L 160.003906 131.199219 "/>
<path style="fill:none;stroke-width:1.2;stroke-linecap:butt;stroke-linejoin:miter;stroke:rgb(0%,0%,0%);stroke-opacity:1;stroke-miterlimit:10;" d="M 224.902344 145.539062 L 237.214844 123.640625 "/>
<path style="fill:none;stroke-width:1.2;stroke-linecap:butt;stroke-linejoin:miter;stroke:rgb(0%,0%,100%);stroke-opacity:1;stroke-miterlimit:10;" d="M 241.917969 164.015625 L 233.410156 154.777344 "/>
<path style="fill:none;stroke-width:1.2;stroke-linecap:butt;stroke-linejoin:miter;stroke:rgb(0%,0%,0%);stroke-opacity:1;stroke-miterlimit:10;" d="M 233.410156 154.777344 L 224.902344 145.539062 "/>
<path style="fill:none;stroke-width:1.2;stroke-linecap:butt;stroke-linejoin:miter;stroke:rgb(0%,0%,0%);stroke-opacity:1;stroke-miterlimit:10;" d="M 237.214844 123.640625 L 249.527344 126.113281 "/>
<path style="fill:none;stroke-width:1.2;stroke-linecap:butt;stroke-linejoin:miter;stroke:rgb(0%,0%,100%);stroke-opacity:1;stroke-miterlimit:10;" d="M 249.527344 126.113281 L 261.84375 128.585938 "/>
<path style="fill:none;stroke-width:1.2;stroke-linecap:butt;stroke-linejoin:miter;stroke:rgb(0%,0%,0%);stroke-opacity:1;stroke-miterlimit:10;" d="M 238.511719 129.933594 L 248.363281 131.910156 "/>
<path style="fill:none;stroke-width:1.2;stroke-linecap:butt;stroke-linejoin:miter;stroke:rgb(0%,0%,100%);stroke-opacity:1;stroke-miterlimit:10;" d="M 248.363281 131.910156 L 258.214844 133.886719 "/>
<path style="fill:none;stroke-width:1.2;stroke-linecap:butt;stroke-linejoin:miter;stroke:rgb(0%,0%,100%);stroke-opacity:1;stroke-miterlimit:10;" d="M 261.84375 128.585938 L 263.296875 141.0625 "/>
<path style="fill:none;stroke-width:1.2;stroke-linecap:butt;stroke-linejoin:miter;stroke:rgb(0%,0%,0%);stroke-opacity:1;stroke-miterlimit:10;" d="M 263.296875 141.0625 L 264.75 153.539062 "/>
<path style=" stroke:none;fill-rule:nonzero;fill:rgb(100%,100%,100%);fill-opacity:1;" d="M 258.84375 123.085938 L 265.84375 123.085938 L 265.84375 134.085938 L 258.84375 134.085938 Z M 258.84375 123.085938 "/>
<g style="fill:rgb(0%,0%,100%);fill-opacity:1;">
  <use xlink:href="#glyph0-1" x="258.84375" y="131.749023"/>
</g>
<path style="fill:none;stroke-width:1.2;stroke-linecap:butt;stroke-linejoin:miter;stroke:rgb(0%,0%,0%);stroke-opacity:1;stroke-miterlimit:10;" d="M 264.75 153.539062 L 253.335938 158.777344 "/>
<path style="fill:none;stroke-width:1.2;stroke-linecap:butt;stroke-linejoin:miter;stroke:rgb(0%,0%,100%);stroke-opacity:1;stroke-miterlimit:10;" d="M 253.335938 158.777344 L 241.917969 164.015625 "/>
<path style="fill:none;stroke-width:1.2;stroke-linecap:butt;stroke-linejoin:miter;stroke:rgb(0%,0%,0%);stroke-opacity:1;stroke-miterlimit:10;" d="M 260.003906 149.214844 L 250.871094 153.402344 "/>
<path style="fill:none;stroke-width:1.2;stroke-linecap:butt;stroke-linejoin:miter;stroke:rgb(0%,0%,100%);stroke-opacity:1;stroke-miterlimit:10;" d="M 250.871094 153.402344 L 241.738281 157.59375 "/>
<path style=" stroke:none;fill-rule:nonzero;fill:rgb(100%,100%,100%);fill-opacity:1;" d="M 238.917969 158.515625 L 245.917969 158.515625 L 245.917969 169.515625 L 238.917969 169.515625 Z M 238.917969 158.515625 "/>
<g style="fill:rgb(0%,0%,100%);fill-opacity:1;">
  <use xlink:href="#glyph0-1" x="238.917969" y="167.178711"/>
</g>
</g>
</svg>

<svg xmlns="http://www.w3.org/2000/svg" xmlns:xlink="http://www.w3.org/1999/xlink" width="300pt" height="300pt" viewBox="0 0 300 300"><defs><symbol overflow="visible"><path d="M.453 1.594v-7.938h4.5v7.938zm.5-.5h3.5v-6.938h-3.5zm0 0"/></symbol><symbol overflow="visible" id="a"><path d="M.89-6.563H2.08l2.906 5.485v-5.484h.86V0H4.656L1.75-5.484V0H.89zm0 0"/></symbol><symbol overflow="visible" id="b"><path d="M.89-6.563h.876v2.688H5v-2.688h.89V0H5v-3.125H1.766V0H.89zm0 0"/></symbol><symbol overflow="visible" id="c"><path d="M4.813-6.344v.86c-.336-.157-.653-.27-.954-.344-.294-.082-.58-.125-.86-.125-.492 0-.867.094-1.125.28-.262.19-.39.454-.39.798 0 .293.085.512.265.656.176.15.504.267.984.36l.547.11c.658.125 1.142.352 1.454.672.32.312.485.734.485 1.265 0 .637-.216 1.122-.642 1.454-.43.325-1.055.485-1.875.485-.312 0-.648-.04-1-.11C1.36-.046 1-.147.625-.296v-.906c.352.2.703.35 1.047.453.35.105.695.156 1.03.156.5 0 .884-.097 1.157-.297.28-.196.42-.485.42-.86 0-.32-.1-.57-.296-.75-.2-.176-.523-.313-.968-.406l-.547-.11C1.81-3.148 1.33-3.36 1.03-3.64.74-3.923.595-4.313.595-4.813c0-.57.203-1.024.61-1.36.405-.344.968-.516 1.687-.516.313 0 .626.032.938.094.32.055.65.137.985.25zm0 0"/></symbol></defs><g><path fill="#fff" d="M0 0h300v300H0z"/><path d="M35.25 145.738l9.957-23.062M50.242 165.895L35.25 145.738M45.207 122.676l24.95-2.906M70.156 119.77l14.996 20.152M85.152 139.922l-9.957 23.062M85.152 139.922l12.477-1.453" stroke-width="1.2" stroke="#000" stroke-miterlimit="10" fill="none"/><path d="M97.63 138.47l12.472-1.454" stroke-width="1.2" stroke="#00f" stroke-miterlimit="10" fill="none"/><path d="M75.195 162.984l-24.953 2.91" stroke-width="1.2" stroke="#000" stroke-miterlimit="10" fill="none"/><path d="M110.102 137.016l7.5 10.078" stroke-width="1.2" stroke="#00f" stroke-miterlimit="10" fill="none"/><path d="M117.602 147.094l7.496 10.074" stroke-width="1.2" stroke="#000" stroke-miterlimit="10" fill="none"/><path d="M103.102 131.516h14v11h-14zm0 0" fill="#fff"/><g fill="#00f"><use xlink:href="#a" x="103.102" y="140.179"/><use xlink:href="#b" x="110.079" y="140.179"/></g><path d="M122.383 155.996l-4.977 11.53" stroke-width="1.2" stroke="#000" stroke-miterlimit="10" fill="none"/><path d="M117.406 167.527l-4.98 11.532" stroke-width="1.2" stroke="#cc0" stroke-miterlimit="10" fill="none"/><path d="M127.81 158.34l-4.978 11.53" stroke-width="1.2" stroke="#000" stroke-miterlimit="10" fill="none"/><path d="M122.832 169.87l-4.98 11.532" stroke-width="1.2" stroke="#cc0" stroke-miterlimit="10" fill="none"/><path d="M125.098 157.168l12.472-1.453" stroke-width="1.2" stroke="#000" stroke-miterlimit="10" fill="none"/><path d="M137.57 155.715l12.477-1.453" stroke-width="1.2" stroke="#00f" stroke-miterlimit="10" fill="none"/><path d="M109.14 174.73h6v11h-6zm0 0" fill="#fff"/><use xlink:href="#c" x="109.141" y="183.394" fill="#cc0"/><path d="M150.047 154.262l7.496 10.078" stroke-width="1.2" stroke="#00f" stroke-miterlimit="10" fill="none"/><path d="M157.543 164.34l7.5 10.074M160.004 131.2l-4.977 11.53" stroke-width="1.2" stroke="#000" stroke-miterlimit="10" fill="none"/><path d="M155.027 142.73l-4.98 11.532" stroke-width="1.2" stroke="#00f" stroke-miterlimit="10" fill="none"/><path d="M147.047 148.762h7v11h-7zm0 0" fill="#fff"/><use xlink:href="#a" x="147.047" y="157.425" fill="#00f"/><path d="M165.043 174.414l24.95-2.906M189.992 171.508l9.957-23.063M199.95 148.445l-14.993-20.152" stroke-width="1.2" stroke="#000" stroke-miterlimit="10" fill="none"/><path d="M224.902 145.54l-25.464-1.497 1.023 8.805zm0 0"/><path d="M184.957 128.293l-24.953 2.906M224.902 145.54l12.313-21.9" stroke-width="1.2" stroke="#000" stroke-miterlimit="10" fill="none"/><path d="M241.918 164.016l-8.508-9.24" stroke-width="1.2" stroke="#00f" stroke-miterlimit="10" fill="none"/><path d="M233.41 154.777l-8.508-9.238M237.215 123.64l12.312 2.473" stroke-width="1.2" stroke="#000" stroke-miterlimit="10" fill="none"/><path d="M249.527 126.113l12.317 2.473" stroke-width="1.2" stroke="#00f" stroke-miterlimit="10" fill="none"/><path d="M238.512 129.934l9.85 1.976" stroke-width="1.2" stroke="#000" stroke-miterlimit="10" fill="none"/><path d="M248.363 131.91l9.852 1.977M261.844 128.586l1.453 12.476" stroke-width="1.2" stroke="#00f" stroke-miterlimit="10" fill="none"/><path d="M263.297 141.063l1.453 12.476" stroke-width="1.2" stroke="#000" stroke-miterlimit="10" fill="none"/><path d="M258.844 123.086h7v11h-7zm0 0" fill="#fff"/><use xlink:href="#a" x="258.844" y="131.749" fill="#00f"/><path d="M264.75 153.54l-11.414 5.237" stroke-width="1.2" stroke="#000" stroke-miterlimit="10" fill="none"/><path d="M253.336 158.777l-11.418 5.24" stroke-width="1.2" stroke="#00f" stroke-miterlimit="10" fill="none"/><path d="M260.004 149.215l-9.133 4.187" stroke-width="1.2" stroke="#000" stroke-miterlimit="10" fill="none"/><path d="M250.87 153.402l-9.132 4.192" stroke-width="1.2" stroke="#00f" stroke-miterlimit="10" fill="none"/><path d="M238.918 158.516h7v11h-7zm0 0" fill="#fff"/><use xlink:href="#a" x="238.918" y="167.179" fill="#00f"/></g></svg>
